tools/download-figma-icons/icons/outlined-medium/city.svg

<svg width="24" height="24" viewBox="0 0 24 24" fill="none" xmlns="http://www.w3.org/2000/svg">
<path fill-rule="evenodd" clip-rule="evenodd" d="M22.5 22.5H18V20.3115H22.5V22.5ZM7.5 10.4993V12.7493V22.4993H16.5V10.4993H7.5ZM6 13.4993V22.5H1.5V13.4993H6ZM17.25 7.49926V8.99926H6.75V7.49926H17.25ZM22.5 5.24926H12.75V5.99926H18C18.4147 5.99926 18.75 6.33451 18.75 6.74926V7.49926H22.5V5.24926ZM22.5 3.74925H12.75V1.5H22.5V3.74925ZM22.5 18.8115H18V16.4993H22.5V18.8115ZM22.5 14.9993H18V12.7493H22.5V14.9993ZM18.75 8.99926V9.74926C18.75 10.164 18.4147 10.4993 18 10.4993V11.2493H22.5V8.99926H18.75ZM12 0H23.25C23.6647 0 24 0.33525 24 0.75V23.25C24 23.6647 23.6647 24 23.25 24H15.15L15.1489 23.9999L15.1481 23.9996C15.1476 23.9994 15.147 23.9993 15.1462 23.9993H6.75375C6.753 23.9993 6.75244 23.9994 6.75188 23.9996C6.75131 23.9998 6.75075 24 6.75 24H0.75C0.33525 24 0 23.6647 0 23.25V12.7493C0 12.3345 0.33525 11.9992 0.75 11.9992H6V10.4992C5.58525 10.4992 5.25 10.164 5.25 9.74925V6.74925C5.25 6.3345 5.58525 5.99925 6 5.99925H11.25V0.75C11.25 0.33525 11.5852 0 12 0ZM3 15.7493C3 15.3345 3.33525 14.9993 3.75 14.9993C4.16475 14.9993 4.5 15.3345 4.5 15.7493V16.4993C4.5 16.914 4.16475 17.2493 3.75 17.2493C3.33525 17.2493 3 16.914 3 16.4993V15.7493ZM3.75 18.7493C3.33525 18.7493 3 19.0845 3 19.4993V20.2493C3 20.664 3.33525 20.9993 3.75 20.9993C4.16475 20.9993 4.5 20.664 4.5 20.2493V19.4993C4.5 19.0845 4.16475 18.7493 3.75 18.7493ZM9 13.4993C9 13.0845 9.33525 12.7493 9.75 12.7493H14.25C14.6648 12.7493 15 13.0845 15 13.4993C15 13.914 14.6648 14.2493 14.25 14.2493H9.75C9.33525 14.2493 9 13.914 9 13.4993ZM9.75 15.7493C9.33525 15.7493 9 16.0845 9 16.4993C9 16.914 9.33525 17.2493 9.75 17.2493H14.25C14.6648 17.2493 15 16.914 15 16.4993C15 16.0845 14.6648 15.7493 14.25 15.7493H9.75ZM9 19.4993C9 19.0845 9.33525 18.7493 9.75 18.7493H14.25C14.6648 18.7493 15 19.0845 15 19.4993C15 19.914 14.6648 20.2493 14.25 20.2493H9.75C9.33525 20.2493 9 19.914 9 19.4993Z" fill="black"/>
</svg>

<svg xmlns="http://www.w3.org/2000/svg" width="24" height="24" fill="none" viewBox="0 0 24 24"><path fill="currentColor" fill-rule="evenodd" d="M22.5 22.5H18v-2.189h4.5zm-15-12v12h9v-12zm-1.5 3v9H1.5v-9zm11.25-6V9H6.75V7.5zm5.25-2.25h-9.75V6H18a.75.75 0 0 1 .75.75v.75h3.75zm0-1.5h-9.75V1.5h9.75zm0 15.061H18V16.5h4.5zm0-3.812H18v-2.25h4.5zm-3.75-6v.75a.75.75 0 0 1-.75.75v.75h4.5V9zM12 0h11.25a.75.75 0 0 1 .75.75v22.5a.75.75 0 0 1-.75.75H.75a.75.75 0 0 1-.75-.75v-10.5A.75.75 0 0 1 .75 12H6v-1.5a.75.75 0 0 1-.75-.75v-3A.75.75 0 0 1 6 6h5.25V.75A.75.75 0 0 1 12 0M3 15.75a.75.75 0 1 1 1.5 0v.75a.75.75 0 1 1-1.5 0zm.75 3a.75.75 0 0 0-.75.75v.75a.75.75 0 1 0 1.5 0v-.75a.75.75 0 0 0-.75-.75M9 13.5a.75.75 0 0 1 .75-.75h4.5a.75.75 0 1 1 0 1.5h-4.5A.75.75 0 0 1 9 13.5m.75 2.25a.75.75 0 1 0 0 1.5h4.5a.75.75 0 1 0 0-1.5zM9 19.5a.75.75 0 0 1 .75-.75h4.5a.75.75 0 1 1 0 1.5h-4.5A.75.75 0 0 1 9 19.5" clip-rule="evenodd"/></svg>
